incomeartour/img/icons/guard.svg

<svg width="41" height="42" viewBox="0 0 41 42" fill="none" xmlns="http://www.w3.org/2000/svg">
<path d="M24.5216 1.39554L24.5215 1.39559L24.5278 1.40104C29.0122 5.30415 33.8553 7.23135 39.3693 7.23135H40.3369V16.5156C40.3369 27.4503 34.1349 36.9559 24.5616 40.7918L24.4891 40.816L24.418 40.7923C20.5881 39.2336 17.3174 36.7989 14.7633 33.726L14.09 32.916L13.888 33.9498L13.6427 35.2055L12.6235 30.8338L12.6037 30.7489L12.5563 30.6757C12.1228 30.0056 11.7655 29.3317 11.4015 28.6038L11.1597 28.1203L10.6965 28.399L7.23026 30.4844L9.39803 26.4125L9.70422 25.8373L9.06944 25.6904L2.37124 24.1399L8.74297 22.6695L9.25592 22.5511L9.1113 22.0449C9.04891 21.8265 9.0136 21.5765 8.97593 21.3098C8.97148 21.2783 8.967 21.2466 8.96244 21.2147L8.95012 21.1284L8.90936 21.0514L7.09907 17.632L7.90812 18.0586L8.64133 18.4452V17.6163C8.64133 17.4385 8.63041 17.2529 8.62051 17.0847L8.62008 17.0773C8.6097 16.901 8.60056 16.7428 8.60056 16.5971V7.23135H9.48666C14.6254 7.23135 19.2596 5.51416 23.5803 2.02438L23.5803 2.0244L23.5849 2.0206L24.4347 1.31734L24.5216 1.39554ZM24.2187 40.4199L24.408 40.4971L24.5972 40.4196C34.0537 36.5454 39.9101 27.4243 39.9101 16.5971V8.07668V7.57668H39.4101H39.3693C33.9502 7.57668 29.1711 5.78872 24.7307 2.02843L24.4265 1.77081L24.1076 2.00999L23.7815 2.25459L23.773 2.26093L23.7648 2.26762C19.3638 5.86844 14.6636 7.57668 9.44589 7.57668H8.94589V8.07668V16.5971C8.94589 17.2295 8.98808 17.817 9.0289 18.3477L9.05003 18.6224L9.29348 18.7512L11.3726 19.852L11.9471 20.1561L12.0937 19.5228L13.645 12.8214L15.1962 19.5228L15.3432 20.1576L15.9183 19.8514L20.1387 17.6046L17.8919 21.825L17.5857 22.4001L18.2205 22.5471L24.7436 24.0571L18.0742 25.3606L17.4124 25.49L17.7285 26.0857L20.0657 30.4905L15.696 27.8687L15.0851 27.5022L14.9481 28.2012L14.1327 32.3595L14.0895 32.5801L14.2258 32.7589C16.7648 36.0888 20.1381 38.7543 24.2187 40.4199Z" stroke="black"/>
<path d="M35.0588 12.3164V11.8216L34.564 11.8164C30.9305 11.7786 27.6984 10.5835 24.7089 8.06864L24.9465 7.79861C27.8988 10.2629 31.1131 11.5118 34.7219 11.5118H35.3634V17.9831C35.3634 25.3598 31.273 31.8007 24.9331 34.5682L24.8051 34.2376C31.1406 31.4849 35.0588 25.2968 35.0588 17.9831V12.3164Z" stroke="black"/>
</svg>

<svg width="41" height="42" fill="none" xmlns="http://www.w3.org/2000/svg"><path d="M24.522 1.396h0l.006.005c4.484 3.903 9.327 5.83 14.841 5.83h.968v9.285c0 10.934-6.202 20.44-15.775 24.276l-.073.024-.071-.024a24.524 24.524 0 01-9.655-7.066l-.673-.81-.202 1.034-.245 1.255-1.02-4.371-.02-.085-.047-.073c-.433-.67-.79-1.344-1.154-2.072l-.242-.484-.463.279-3.467 2.085 2.168-4.072.306-.575-.635-.147-6.698-1.55 6.372-1.47.513-.119-.145-.506c-.062-.219-.097-.469-.135-.735a58.32 58.32 0 00-.014-.095l-.012-.087-.04-.077-1.81-3.419.808.427.733.386v-.829c0-.177-.01-.363-.02-.531v-.008a8.416 8.416 0 01-.02-.48V7.231h.886c5.138 0 9.773-1.717 14.093-5.207h0l.005-.003.85-.704.087.079zm-.303 39.024l.189.077.19-.077c9.456-3.875 15.312-12.996 15.312-23.823v-9.02h-.54c-5.42 0-10.199-1.788-14.64-5.549l-.303-.257-.32.239-.325.245-.009.006-.008.007c-4.401 3.6-9.101 5.309-14.32 5.309h-.5v9.02c0 .633.043 1.22.084 1.75l.021.275.243.13 2.08 1.1.574.304.147-.633 1.551-6.702 1.551 6.702.147.635.575-.307 4.22-2.246-2.246 4.22-.306.575.635.147 6.523 1.51-6.67 1.304-.662.129.317.596 2.337 4.405-4.37-2.622-.61-.367-.138.7-.815 4.157-.043.221.136.179a23.818 23.818 0 009.993 7.66z" stroke="#000"/><path d="M35.059 12.316v-.494l-.495-.006c-3.634-.037-6.866-1.232-9.855-3.747l.238-.27c2.952 2.464 6.166 3.713 9.775 3.713h.641v6.471c0 7.377-4.09 13.818-10.43 16.585l-.128-.33c6.336-2.753 10.254-8.941 10.254-16.255v-5.667z" stroke="#000"/></svg>
